X:12
T:The Yellow Cow
T:Mother and Child
S:Sean Gavin
R:Reel
M:4/4
K:D
A2GF FDDF | EFGF EFGE | A2GE FDDF | EFGE A4 :|
|: cAA2 (3Bcd eg | fdec dcAd | cAA2 (3Bcd eg | fdec d4 :|


